app/assets/images/logo.svg

<svg xmlns="http://www.w3.org/2000/svg" viewBox="0 0 1360 1024">
  <path fill="#16779D" fill-rule="evenodd" d="M0 0h1360v1024H688L0 0zm878.766043 131.447915v215.546913c0 40.387729-24.540546 61.35865-54.306822 61.35865-24.987355 0-38.998733-14.686449-38.998733-39.081295V131.447915h-71.008776V382.54049c0 66.02587 36.929804 93.0433 87.132776 93.0433 36.055616 0 67.303166-16.094869 86.064326-45.385197v41.213354h62.125998V131.447915h-71.008769zm198.577847 279.620416V131.447915h-71.00878v339.964032l184.53733-.014569v-60.329047h-113.52855zM835.109805 544.637768c-68.021945-.043708-108.846768 35.467962-108.846768 95.777577v14.744726h61.97059v-14.545602c0-26.342359 14.89528-41.266778 46.001991-41.266778 27.488523 0 45.608604 11.442217 45.608604 41.592171v44.612995l-61.834604 5.186876c-65.632484 5.589977-99.313209 33.884695-99.313209 87.890408v25.929543c0 56.113488 38.527639 87.992401 93.888355 87.992401 35.07943 0 60.576732-11.76761 76.443338-33.559302v29.785706h61.820028V640.862147c0-63.840387-45.00638-96.180678-115.738325-96.224386zM879.795646 777.7511c.048569 33.836134-17.245887 56.565159-50.980036 56.565159-27.051422 0-42.140972-12.010441-42.140972-35.021152V774.73513c0-20.407557 10.704007-34.676335 41.849572-37.580597l51.319998-4.341828v32.286868h-.04857l.000008 12.651527zm299.688014-63.806387c29.87312-12.65152 46.05541-35.438822 46.05541-67.779113v-15.113828c0-52.587578-40.47514-82.2373-117.37501-82.2373h-104.61178v339.964032h111.3965c78.48798 0 117.53042-31.407819 117.53042-87.448461v-19.931602c0-33.501025-17.77041-56.152343-52.99554-67.45372zm-71.57214-112.989464c28.56184 0 45.08409 13.326591 45.08409 36.434433v15.220674c0 23.302104-15.39551 38.066253-44.56928 38.12453l-33.88956.072847v-89.847637l33.37475-.004847zm51.48999 195.78042c0 25.001924-15.55578 39.372687-47.89608 39.372687h-36.96865v-97.355988l36.96865-.082562c32.3403-.058277 47.89608 14.200786 47.89608 38.454792v19.611071z"/>
</svg>

<?xml version="1.0" encoding="UTF-8"?>
<svg width="1360px" height="1024px" viewBox="0 0 1360 1024" version="1.1" xmlns="http://www.w3.org/2000/svg" xmlns:xlink="http://www.w3.org/1999/xlink">
    <!-- Generator: Sketch 52.2 (67145) - http://www.bohemiancoding.com/sketch -->
    <title>Logo@1x</title>
    <desc>Created with Sketch.</desc>
    <g id="Logo" stroke="none" stroke-width="1" fill="none" fill-rule="evenodd">
        <path d="M0,0 L1360,0 L1360,1024 L688,1024 L0,0 Z M878.766043,131.447915 L878.766043,346.994828 C878.766043,387.382557 854.225497,408.353478 824.459221,408.353478 C799.471866,408.353478 785.460488,393.667029 785.460488,369.272183 L785.460488,131.447915 L714.451712,131.447915 L714.451712,382.54049 C714.451712,448.56636 751.381516,475.58379 801.584488,475.58379 C837.640104,475.58379 868.887654,459.488921 887.648814,430.198593 L887.648814,471.411947 L949.774812,471.411947 L949.774812,131.447915 L878.766043,131.447915 Z M1077.34389,411.068331 L1077.34389,131.447915 L1006.33511,131.447915 L1006.33511,471.411947 L1190.87244,471.397378 L1190.87244,411.068331 L1077.34389,411.068331 Z M835.109805,544.637768 C767.08786,544.59406 726.263037,580.10573 726.263037,640.415345 L726.263037,655.160071 L788.233627,655.160071 L788.233627,640.614469 C788.233627,614.27211 803.128907,599.347691 834.235618,599.347691 C861.724141,599.347691 879.844222,610.789908 879.844222,640.939862 L879.844222,685.552857 L818.009618,690.739733 C752.377134,696.32971 718.696409,724.624428 718.696409,778.630141 L718.696409,804.559684 C718.696409,860.673172 757.224048,892.552085 812.584764,892.552085 C847.664194,892.552085 873.161496,880.784475 889.028102,858.992783 L889.028102,888.778489 L950.84813,888.778489 L950.84813,640.862147 C950.84813,577.02176 905.84175,544.681469 835.109805,544.637761 Z M879.795646,777.7511 C879.844215,811.587234 862.549759,834.316259 828.81561,834.316259 C801.764188,834.316259 786.674638,822.305818 786.674638,799.295107 L786.674638,774.73513 C786.674638,754.327573 797.378645,740.058795 828.52421,737.154533 L879.844208,732.812705 L879.844208,765.099573 L879.795638,765.099573 L879.795646,777.7511 Z M1179.48366,713.944713 C1209.35678,701.293193 1225.53907,678.505891 1225.53907,646.1656 L1225.53907,631.051772 C1225.53907,578.464194 1185.06393,548.814472 1108.16406,548.814472 L1003.55228,548.814472 L1003.55228,888.778504 L1114.94878,888.778504 C1193.43676,888.778504 1232.4792,857.370685 1232.4792,801.330043 L1232.4792,781.398441 C1232.4792,747.897416 1214.70879,725.246098 1179.48366,713.944721 Z M1107.91152,600.955249 C1136.47336,600.955249 1152.99561,614.28184 1152.99561,637.389682 L1152.99561,652.610356 C1152.99561,675.91246 1137.6001,690.676609 1108.42633,690.734886 L1074.53677,690.807733 L1074.53677,600.960096 L1107.91152,600.955249 Z M1159.40151,796.735669 C1159.40151,821.737593 1143.84573,836.108356 1111.50543,836.108356 L1074.53678,836.108356 L1074.53678,738.752368 L1111.50543,738.669806 C1143.84573,738.611529 1159.40151,752.870592 1159.40151,777.124598 L1159.40151,796.735669 Z" id="Combined-Shape" fill="#16779D"></path>
    </g>
</svg>
